X:1
T:G Major Oliver Holden, 1803
T:Isaac Watts, 1709 (Hymn 103, Book 2) 86. 86. (C. M.)
T:Ashby No copyright. Transcribed from The Charlestown Collection, 1803.
%%score [ 1 2 3 4 ]
L:1/8
M:2/2
K:G
V:1 treble nm="Treble" snm="Tr."
V:2 treble nm="Counter" snm="C."
V:3 treble-8 nm="Tenor" snm="T."
V:4 bass nm="Bass" snm="B."
V:1
 B4 G2 A2 | B6 G2 | G4 G4 | G6 A2 | (B2 d2) (B2 d2) | (c2 d2) e4 | d6 z2 | z8 | z4 z2 G2 | d6 d2 | %10
w: ||||||||Come|ten- der|
 B4 c4 | G6 G2 | F6 d2 | B2 B2 B2 c2 | d2 e2 d2 d2 | c6 BA | G4 (d2 c2) | B8 |] %18
w: to Al-|migh- ty|love, *||||||
V:2
 D4 G2 F2 | G6 D2 | (E2 G2) G4 | G6 F2 | G4 G4 | G4 E4 | F6 z2 | z8 | z8 | z4 z2 G2 | G2 D2 G2 G2 | %11
w: 1.Come, hap- py|souls, ap-|proach * your|God, with|new mel-|o- dious|songs!|||Come|ten- der to Al-|
 E6 D2 | D6 D2 | G2 G2 D2 A2 | G2 G2 G2 G2 | G6 G2 | G4 F4 | G8 |] %18
w: migh- ty|love, Come|ten- der to Al-|migh- ty love The|tri- bute|of your|tongues.|
V:3
 G4 B2 c2 | d6 g2 | (e2 d2) (d2 c2) | B6 c2 | (d2 B2) (d2 g2) | (e2 d2) (c2 B2) | A6 z2 | %7
w: |||||||
 z4 z2 B2 | d2 B2 c2 A2 | B2 A2 G2 B2 | d2 g2 e2 dc | c6 B2 | A6 Bc | d2 d2 G2 A2 | B2 c2 d2 g2 | %15
w: Come|ten- der to Al-|migh- ty love, Come|ten- der to Al- *|migh- ty|love, * *|||
 (e4 ce) dc | B4 A4 | G8 |] %18
w: |||
V:4
 G,4 G,2 D,2 | G,6 B,2 | (C2 B,2) (B,2 A,2) | G,6 D,2 | G,4 G,4 | (C2 B,2) (A,2 G,2) | D,6 G,2 | %7
w: ||||||* Come|
 B,2 G,2 F,2 G,2 | E,4 C,4 | D,6 B,,2 | E,2 E,2 C,2 C,2 | C,6 G,,2 | D,6 G,2 | B,2 G,2 E,2 C,2 | %14
w: ten- der to Al-|migh- ty|love, Come|ten- der to Al-|migh- ty|love, *||
 G,2 G,2 G,2 B,2 | C6 B,C | D4 D,4 | G,8 |] %18
w: ||||

